X:1
T:Cherish the Ladies
M:6/8
L:1/8
Q:80
C:arr. Kent Hiestand
S:Jig
K:HP
f/2g/2 | \
{ag}ac{G}c{g}edc | \
{g}Ace{A}ece |
{g}fB{G}B{g}dB{G}B | \
{g}faf{g}ece | \
{ag}ac{G}c{g}edc |
{g}Ace{A}ece | \
{g}Bcd{g}efg | \
{a}fd{G}d{gdG}d2 ::
B/2c/2 | \
{g}dfd{g}cec | \
{g}faf{g}edc |
{g}fB{G}B{g}dB{G}B | \
{g}faf{g}ece | \
{g}dfd{g}cec |
{g}faf{g}ece | \
{g}Bcd{g}efg | \
{a}fd{G}d{gdG}d2 :|
